X: 36978
T: Shy Guy's Serve
R: jig
M: 6/8
K: Gmajor
|:B2 A GED|EGA GED|ABA GEE|GBd e2 d|
B2 A GED|EGA GED|BAG EDE|GBG (A2 A):|
|:ABd e2 e|dBA G2 g|e2 e dBG|GAB (A2 A)|
ABd e2 e|dBA GED|E2 E DGe|dBA G2 z:|

